svg/SJJB-OpenStreetMapIcons/amenity/town_hall.svg

<?xml version="1.0" encoding="UTF-8" standalone="no"?>
<!-- Created with Inkscape (http://www.inkscape.org/) -->

<svg
   xmlns:dc="http://purl.org/dc/elements/1.1/"
   xmlns:cc="http://creativecommons.org/ns#"
   xmlns:rdf="http://www.w3.org/1999/02/22-rdf-syntax-ns#"
   xmlns:svg="http://www.w3.org/2000/svg"
   xmlns="http://www.w3.org/2000/svg"
   xmlns:sodipodi="http://sodipodi.sourceforge.net/DTD/sodipodi-0.dtd"
   xmlns:inkscape="http://www.inkscape.org/namespaces/inkscape"
   version="1.0"
   width="580"
   height="580"
   id="svg2"
   sodipodi:version="0.32"
   inkscape:version="0.48.0 r9654"
   sodipodi:docname="amenity_town_hall.svg"
   inkscape:output_extension="org.inkscape.output.svg.inkscape">
  <metadata
     id="metadata2975">
    <rdf:RDF>
      <cc:Work
         rdf:about="">
        <dc:format>image/svg+xml</dc:format>
        <dc:type
           rdf:resource="http://purl.org/dc/dcmitype/StillImage" />
        <cc:license
           rdf:resource="http://web.resource.org/cc/PublicDomain" />
        <dc:language>en</dc:language>
        <dc:title></dc:title>
      </cc:Work>
    </rdf:RDF>
  </metadata>
  <sodipodi:namedview
     inkscape:window-height="1002"
     inkscape:window-width="1278"
     inkscape:pageshadow="2"
     inkscape:pageopacity="0.0"
     guidetolerance="10.0"
     gridtolerance="10.0"
     objecttolerance="10.0"
     borderopacity="1.0"
     bordercolor="#666666"
     pagecolor="#ffffff"
     id="base"
     inkscape:zoom="0.32586207"
     inkscape:cx="708.05004"
     inkscape:cy="-163.93552"
     inkscape:window-x="640"
     inkscape:window-y="24"
     inkscape:current-layer="svg2"
     showgrid="false"
     inkscape:window-maximized="0" />
  <defs
     id="defs4">
    <inkscape:perspective
       sodipodi:type="inkscape:persp3d"
       inkscape:vp_x="0 : 290 : 1"
       inkscape:vp_y="0 : 1000 : 0"
       inkscape:vp_z="580 : 290 : 1"
       inkscape:persp3d-origin="290 : 193.33333 : 1"
       id="perspective2441" />
    <inkscape:perspective
       id="perspective3452"
       inkscape:persp3d-origin="30 : 20 : 1"
       inkscape:vp_z="60 : 30 : 1"
       inkscape:vp_y="0 : 1000 : 0"
       inkscape:vp_x="0 : 30 : 1"
       sodipodi:type="inkscape:persp3d" />
    <symbol
       viewBox="244.5 110 489 219.9"
       id="symbol-university">
      <path
         id="path4460"
         d="M79,43l57,119c0,0,21-96,104-96s124,106,124,106l43-133l82-17L0,17L79,43z" />
      <path
         id="path4462"
         d="M94,176l-21,39"
         stroke-width="20"
         stroke="#000000"
         fill="none" />
      <path
         id="path4464"
         d="M300,19c0,10.5-22.6,19-50.5,19S199,29.5,199,19s22.6-19,50.5-19S300,8.5,300,19z" />
      <path
         id="path4466"
         d="M112,216l-16-38L64,88c0,0-9-8-4-35s16-24,16-24"
         stroke-width="20"
         stroke="#000000"
         ill="none" />
    </symbol>
    <inkscape:perspective
       id="perspective4471"
       inkscape:persp3d-origin="372.04724 : 350.78739 : 1"
       inkscape:vp_z="744.09448 : 526.18109 : 1"
       inkscape:vp_y="0 : 1000 : 0"
       inkscape:vp_x="0 : 526.18109 : 1"
       sodipodi:type="inkscape:persp3d" />
    <inkscape:perspective
       id="perspective4668"
       inkscape:persp3d-origin="6 : 4 : 1"
       inkscape:vp_z="12 : 6 : 1"
       inkscape:vp_y="0 : 1000 : 0"
       inkscape:vp_x="0 : 6 : 1"
       sodipodi:type="inkscape:persp3d" />
    <inkscape:perspective
       id="perspective4904"
       inkscape:persp3d-origin="16 : 10.666667 : 1"
       inkscape:vp_z="32 : 16 : 1"
       inkscape:vp_y="0 : 1000 : 0"
       inkscape:vp_x="0 : 16 : 1"
       sodipodi:type="inkscape:persp3d" />
  </defs>
  <g
     id="g1327">
    <path
       d="M 66.275,1.768 C 24.94,1.768 1.704,23.139 1.704,66.804 L 1.704,516.927 C 1.704,557.771 22.599,579.156 63.896,579.156 L 515.92,579.156 C 557.227,579.156 578.149,558.841 578.149,516.927 L 578.149,66.804 C 578.149,24.203 557.227,1.768 514.628,1.768 C 514.624,1.768 66.133,1.625 66.275,1.768 z "
       style="fill:#111;stroke:#eee;stroke-width:3.40799999"
       id="path1329" />
  </g>
  <g
     id="layer3"
     inkscape:label="Layout"
     style="display:none;stroke:#757575;stroke-opacity:1"
     transform="matrix(48.14969,0,0,48.14969,-536.27327,-33.306752)">
    <rect
       style="fill:none;stroke:#757575;stroke-width:0.10000000000000001;stroke-miterlimit:4;stroke-dasharray:none;stroke-opacity:1;display:inline"
       id="rect4134"
       width="10"
       height="10"
       x="1"
       y="1" />
    <rect
       style="fill:none;stroke:#757575;stroke-width:0.10000000000000001;stroke-miterlimit:4;stroke-dasharray:none;stroke-opacity:1;display:inline"
       id="rect4136"
       width="8"
       height="8"
       x="2"
       y="2" />
  </g>
  <g
     id="g4372"
     transform="translate(-166.49217,52.019299)" />
  <path
     style="font-size:12px;opacity:0.2;fill:#ffffff;fill-opacity:1;fill-rule:evenodd;stroke:#ffffff;stroke-width:1.24141979;stroke-opacity:1"
     d="M 286.94406,44.001595 L 34.884618,235.90902 L 85.296174,235.90902 L 85.296174,543.77001 L 236.53218,543.77001 L 340.81297,543.77001 L 488.59196,543.77001 L 488.59196,235.90902 L 539.00386,235.90902 L 286.94406,44.001595 L 286.94406,44.001595 L 286.94406,44.001595 z"
     id="path645"
     sodipodi:nodetypes="cccccccccccc" />
  <g
     id="g7376">
    <path
       style="font-size:12px;opacity:1;fill:none;fill-opacity:1;fill-rule:evenodd;stroke:#ffffff;stroke-width:20;stroke-linejoin:round;stroke-miterlimit:4;stroke-dasharray:none;stroke-opacity:1"
       d="M 286.94406,34.001595 L 34.884618,225.90902 L 85.296174,225.90902 L 85.296174,543.77001 L 236.53218,543.77001 L 340.81297,543.77001 L 488.59196,543.77001 L 488.59196,225.90902 L 539.00386,225.90902 L 286.94406,34.001595 L 286.94406,34.001595 L 286.94406,34.001595 z"
       id="path3198"
       sodipodi:nodetypes="cccccccccccc" />
  </g>
  <g
     id="g7429"
     transform="translate(20.714286,6.9047619)">
    <g
       transform="matrix(0.72874211,0.31791172,-0.31791172,0.72874211,171.56325,-23.649792)"
       id="g7395">
      <path
         style="fill:#ffffff;fill-opacity:1;stroke:none"
         d="m 266.3125,331.0625 c -4.37763,5.92064 -29.89848,10.46875 -60.71875,10.46875 -30.39471,0 -55.61015,-4.41796 -60.5,-10.21875 l 0,74.25 c -0.11729,0.31171 -0.1875,0.61972 -0.1875,0.9375 0,6.77937 27.16141,12.28125 60.6875,12.28125 33.31348,0 60.34581,-5.43622 60.6875,-12.15625 l 0.0312,0 0,-0.125 0,-75.4375 z"
         id="path7344"
         inkscape:connector-curvature="0" />
      <path
         sodipodi:type="arc"
         style="fill:#ffffff;fill-opacity:1;stroke:#000000;stroke-width:0.5;stroke-linecap:round;stroke-linejoin:miter;stroke-miterlimit:4;stroke-opacity:1;stroke-dasharray:none"
         id="path7364"
         sodipodi:cx="205.60846"
         sodipodi:cy="279.25925"
         sodipodi:rx="61.37566"
         sodipodi:ry="12.275132"
         d="m 266.98412,279.25925 c 0,6.77937 -27.47882,12.27513 -61.37566,12.27513 -33.89684,0 -61.37566,-5.49576 -61.37566,-12.27513 0,-6.77937 27.47882,-12.27514 61.37566,-12.27514 33.89684,0 61.37566,5.49577 61.37566,12.27514 z"
         transform="translate(0,32)" />
      <path
         id="path7391"
         d="m 266.3125,417.0625 c -4.37763,5.92064 -29.89848,10.46875 -60.71875,10.46875 -30.39471,0 -55.61015,-4.41796 -60.5,-10.21875 l 0,8.25 c -0.11729,0.31171 -0.1875,0.61972 -0.1875,0.9375 0,6.77937 27.16141,12.28125 60.6875,12.28125 33.31348,0 60.34581,-5.43622 60.6875,-12.15625 l 0.0312,0 0,-0.125 0,-9.4375 z"
         style="fill:#ffffff;fill-opacity:1;stroke:none"
         inkscape:connector-curvature="0"
         sodipodi:nodetypes="csccssccccc" />
      <path
         sodipodi:nodetypes="csccssccccc"
         inkscape:connector-curvature="0"
         style="fill:#ffffff;fill-opacity:1;stroke:none"
         d="m 266.3125,311.0625 c -4.37763,5.92064 -29.89848,10.46875 -60.71875,10.46875 -30.39471,0 -55.61015,-4.41796 -60.5,-10.21875 l 0,8.25 c -0.11729,0.31171 -0.1875,0.61972 -0.1875,0.9375 0,6.77937 27.16141,12.28125 60.6875,12.28125 33.31348,0 60.34581,-5.43622 60.6875,-12.15625 l 0.0312,0 0,-0.125 0,-9.4375 z"
         id="path7393" />
    </g>
    <g
       transform="translate(-6,-2)"
       id="g7407">
      <path
         sodipodi:type="arc"
         style="fill:#ffffff;fill-opacity:1;stroke:none"
         id="path7403"
         sodipodi:cx="418.50528"
         sodipodi:cy="367.10318"
         sodipodi:rx="18.796297"
         sodipodi:ry="15.727513"
         d="m 437.30158,367.10318 c 0,8.68607 -8.41539,15.72751 -18.7963,15.72751 -10.38091,0 -18.7963,-7.04144 -18.7963,-15.72751 0,-8.68607 8.41539,-15.72751 18.7963,-15.72751 10.38091,0 18.7963,7.04144 18.7963,15.72751 z"
         transform="matrix(0.72141853,-0.57837093,0.51147444,0.81577391,-63.840382,365.49477)" />
      <path
         style="fill:none;stroke:#ffffff;stroke-width:35.79999924;stroke-linecap:round;stroke-linejoin:round;stroke-miterlimit:4;stroke-opacity:1;stroke-dasharray:none"
         d="M 422.72486,421.19048 230.15873,323.75662"
         id="path7405"
         inkscape:connector-curvature="0"
         sodipodi:nodetypes="cc" />
    </g>
  </g>
  <g
     id="g7425"
     transform="matrix(1.7367305,0,0,1.7367305,-173.92643,-301.91227)">
    <path
       sodipodi:type="arc"
       style="fill:#ffffff;fill-opacity:1;stroke:#000000;stroke-width:0.5;stroke-linecap:round;stroke-linejoin:miter;stroke-miterlimit:4;stroke-opacity:1;stroke-dasharray:none"
       id="path7415"
       sodipodi:cx="205.60846"
       sodipodi:cy="279.25925"
       sodipodi:rx="61.37566"
       sodipodi:ry="12.275132"
       d="m 266.98412,279.25925 c 0,6.77937 -27.47882,12.27513 -61.37566,12.27513 -33.89684,0 -61.37566,-5.49576 -61.37566,-12.27513 0,-6.77937 27.47882,-12.27514 61.37566,-12.27514 33.89684,0 61.37566,5.49577 61.37566,12.27514 z"
       transform="matrix(0.7950588,-0.00379775,0.00379775,0.7950588,51.761692,201.63857)" />
    <path
       sodipodi:nodetypes="csccssccccc"
       inkscape:connector-curvature="0"
       style="fill:#ffffff;fill-opacity:1;stroke:none"
       d="m 264.5556,422.49828 c -3.45799,4.72388 -23.73129,8.43682 -48.23522,8.55387 -24.16558,0.11543 -44.23012,-3.30135 -48.13987,-7.89475 l 0.0313,6.55924 c -0.0921,0.24827 -0.14672,0.49342 -0.14552,0.74608 0.0258,5.39 21.64156,9.66116 48.29677,9.53384 26.48618,-0.12652 47.95783,-4.5513 48.20397,-9.89541 l 0.0248,-1.2e-4 -4.7e-4,-0.0994 -0.0358,-7.50337 z"
       id="path7419" />
  </g>
</svg>

<svg xmlns="http://www.w3.org/2000/svg" viewBox="0 0 580 580" xmlns:xlink="http://www.w3.org/1999/xlink"><path d="m66.28 1.768c-41.34 0-64.57 21.371-64.57 65.04v450.12c0 40.844 20.895 62.23 62.19 62.23h452.02c41.31 0 62.23-20.315 62.23-62.23v-450.12c0-42.601-20.922-65.04-63.52-65.04-.004 0-448.5-.143-448.35 0z" fill="#111" stroke="#eee" stroke-width="3.408"/><g fill-rule="evenodd" stroke="#fff"><path d="m286.94 44l-252.06 191.91h50.41v307.86h151.24 104.28 147.78v-307.86h50.41l-252.06-191.91z" opacity=".2" fill="#fff" stroke-width="1.241"/><path d="m286.94 34l-252.06 191.91h50.41v317.86h151.24 104.28 147.78v-317.86h50.41l-252.06-191.91z" fill="none" stroke-linejoin="round" stroke-width="20"/></g><g transform="translate(20.714 6.905)"><g transform="matrix(.72874.31791-.31791.72874 171.56-23.65)"><path d="m266.31 331.06c-4.378 5.921-29.898 10.469-60.719 10.469-30.395 0-55.61-4.418-60.5-10.219v74.25c-.117.312-.188.62-.188.938 0 6.779 27.16 12.281 60.688 12.281 33.31 0 60.35-5.436 60.688-12.156h.031v-.125-75.44" fill="#fff"/><use transform="matrix(1.25774.00601-.00601 1.25774-63.891-221.92)" xlink:href="#0"/><g fill="#fff"><path d="m266.31 417.06c-4.378 5.921-29.898 10.469-60.719 10.469-30.395 0-55.61-4.418-60.5-10.219v8.25c-.117.312-.188.62-.188.938 0 6.779 27.16 12.281 60.688 12.281 33.31 0 60.35-5.436 60.688-12.156h.031v-.125-9.438"/><path d="m266.31 311.06c-4.378 5.921-29.898 10.469-60.719 10.469-30.395 0-55.61-4.418-60.5-10.219v8.25c-.117.312-.188.62-.188.938 0 6.779 27.16 12.281 60.688 12.281 33.31 0 60.35-5.436 60.688-12.156h.031v-.125-9.438"/></g></g><g transform="translate(-6-2)"><path d="m437.3 367.1c0 8.686-8.415 15.728-18.796 15.728-10.381 0-18.796-7.04-18.796-15.728 0-8.686 8.415-15.728 18.796-15.728 10.381 0 18.796 7.04 18.796 15.728" transform="matrix(.72142-.57837.51147.81577-63.84 365.49)" fill="#fff"/><path d="m422.72 421.19l-192.57-97.43" fill="none" stroke="#fff" stroke-linejoin="round" stroke-linecap="round" stroke-width="35.8"/></g></g><g transform="matrix(1.73673 0 0 1.73673-173.93-301.91)"><path d="m266.98 279.26c0 6.779-27.479 12.275-61.38 12.275-33.897 0-61.38-5.496-61.38-12.275 0-6.779 27.479-12.275 61.38-12.275 33.897 0 61.38 5.496 61.38 12.275z" transform="matrix(.79506-.0038.0038.79506 51.762 201.64)" fill="#fff" stroke="#000" stroke-linecap="round" stroke-width=".5" id="0"/><path d="m264.56 422.5c-3.458 4.724-23.731 8.437-48.24 8.554-24.17.115-44.23-3.301-48.14-7.895l.031 6.559c-.092.248-.147.493-.146.746.026 5.39 21.642 9.661 48.3 9.534 26.486-.127 47.958-4.551 48.2-9.895h.025v-.099l-.036-7.503" fill="#fff"/></g></svg>
